X: 206
T: Bak Ne Hale Koydu...
C: Hacı Ârif Bey
O: Turkey
F: http://compmusic.upf.edu/node/140
N: hicaz--sarki--agiraksak--bak_ne_hale--haci_arif_bey
N: makam= hicaz
N: form= sarki
N: usul= agiraksak = 9/4
M: 9/4
L: 1/16
K: C _7/8B ^f ^c 
Q: 1/4=66
%%MIDI tuningsystem comma53
g2a4gf efg4fe defg afge d4 =c'3/2=b/ab a4  | 
w:  ARANAĞME  | 
a2d'4=c'=b baag fed2 e3f g3/2b/ag f3e e2{f}ed d4  | 
w:   | 
defg a4 gfef g4 =fede f4 edcd efed cdcB  | 
w:   | 
A2e4cB A2=f4ed c3d cBBA A4 de^fg a4  | \
w:   | 
g2a4gf efg4fe defg afge d4 =c'3/2=b/ab a4  | 
w:  ARANAĞME  | 
a2d'4=c'=b baag fed2 e3f g3/2b/ag f3e e2{f}ed d4  | 
w:   | 
defg a4 gfef g4 =fede f4 edcd efed cdcB  | 
w:   | 
A2e4cB A2=f4ed c3d cBBA A12  | A3B AGA2 z2d4e2 e8 e2=fe d2^f2 e2g2  | 
w:   |  SAZ *  *  *  *  Bak  ne  ha le   | 
g=ffe eddc c2d4g2 gffe edde dc=Bc d8  | 
w:  *  *  *  *  *  *  *  *  *  koy du  bu  *  *  *  *  *  *  *  baht_  | 
d2de d2e2 f2g2 a2=b2 a3g f2a2 ag2f e2g2 =f2e2  | \
w:  *  ı  *  *  *  *  *  *  *  *  *  *  *  *  *  *  *  *  si  | 
d2cd e2de =f2{g}fe e2{f}ed d2{e}dc B2{e}dc c6cd cBAB  | 
w:  yâh   *  *  *  *  *  *  *  *  *  *  *  *  *  *  *  *  *  *  *  *  *  *  SAZ  | 
c3d ced2 z2d4a2 aggf e2f2 g3=b a2g2 f2ef  | 
w:  *  *  *  *  *  Bah ti yâr  *  *  *  *  *  ol  | 
ag=fe dcd2 z2e2 ^f2g2 g=ffe efed cdcB cdef edcB  | 
w:  *  *  *  *  *  *  *  mak  *  ne  güç  *  *  *  *  *  *  *  â  | 
A2A4c4B4d4cd cde=f eddc d4 e2^f2  | \
w:  *  lem *  *  *  *  *  *  *  *  *  *  *  *  *  *  de   | 
g2=fe f2ed e2dc cdef eddc cBBA A6g2 ^f2g2  | 
w:  âh   *  *  *  *  *  *  *  *  *  *  *  *  *  *  *  *  *  *  *  *  *  SAZ  | 
a8 z2g4a2 a8 =bagf efga b3a  | a2g2 g2f2 z2a4=b2 a3g fgab aggf g2a2 g2f2  | 
w:  *  Dem be dem  kâ  |  *  *  *  *  rım  o lup *  *  *  *  *  tur   | 
z2ef e2f2 g2a2 =b2ag fgag a2gf efgf g2=fe eddc  | 
w:  âh_  | 
d4 z2fg a2gf =b3a aggf fefe e6e=f edcd  | 
w:  ü  vâh   *  *  *  *  *  *  *  *  *  *  *  *  *  *  *  SAZ  | 
c3d ced2 z2d4a2 aggf e2f2 g3=b a2g2 f2ef  | 
w:  *  *  *  *  *  Bah ti yâr  *  *  *  *  *  ol  | 
ag=fe dcd2 z2e2 ^f2g2 g=ffe efed cdcB cdef edcB  | 
w:  *  *  *  *  *  *  *  mak  *  ne  güç  *  *  *  *  *  *  *  â  | 
A2A4c4B4d4cd cde=f eddc d4 e2^f2  | \
w:  *  lem *  *  *  *  *  *  *  *  *  *  *  *  *  *  de   | 
g2=fe f2ed e2dc cdef eddc cBBA A6|
w:  âh    | 


